X: 797
T: Al Nadda
R: reel
M: 4/4
K: Dminor
cddd _e^fed|cddd _e^f d2|cddd _e^fed|ag/^f/ gf/_e/ de d2:|
d a2 a ba/g/ a2|d a2 a ba/g/ a2|d a2 a ba/g/ a2|d a2 a ba/g/ a2|
gbgb g/g/g b2|ag^f_e de d2:|gbgb g/g/g b2|ag^f_e de d2||

